X: 3705
T: Billy Taylor's Fancy
R: hornpipe
M: 4/4
K: Gmajor
|:GABc dBeB|dgfg bgdB|cAdc BGdB|ABGE DcBA|
GABc dBeB|dgfg bgdB|cAdc BGAF|1 GBAF GDEF:|2 GBAF G2 fg||
|:ag f2 defg|afge defg|afbg afge|dgdB AcBA|
GABc dBeB|dgfg bgdB|cAdc BGAF|1 GBAF G2 fg:|2 GBAF G4||

